assets/fa/fa-caravan.svg

<svg xmlns="http://www.w3.org/2000/svg" width="100%" height="100%" viewBox="-54.4 -118.4 748.8 748.8"><path d="M416 208a16 16 0 1016 16 16 16 0 00-16-16zm208 112h-48V160A160 160 0 00416 0H64A64 64 0 000 64v256a64 64 0 0064 64h32a96 96 0 00192 0h336a16 16 0 0016-16v-32a16 16 0 00-16-16zM192 432a48 48 0 1148-48 48.05 48.05 0 01-48 48zm64-240a32 32 0 01-32 32H96a32 32 0 01-32-32v-64a32 32 0 0132-32h128a32 32 0 0132 32zm192 128H320V128a32 32 0 0132-32h64a32 32 0 0132 32z"/></svg>

<svg xmlns="http://www.w3.org/2000/svg" width="100%" height="100%" viewBox="-54.4 -118.4 748.8 748.8"><path d="M416,208a16,16,0,1,0,16,16A16,16,0,0,0,416,208ZM624,320H576V160A160,160,0,0,0,416,0H64A64,64,0,0,0,0,64V320a64,64,0,0,0,64,64H96a96,96,0,0,0,192,0H624a16,16,0,0,0,16-16V336A16,16,0,0,0,624,320ZM192,432a48,48,0,1,1,48-48A48.05,48.05,0,0,1,192,432Zm64-240a32,32,0,0,1-32,32H96a32,32,0,0,1-32-32V128A32,32,0,0,1,96,96H224a32,32,0,0,1,32,32ZM448,320H320V128a32,32,0,0,1,32-32h64a32,32,0,0,1,32,32Z"/></svg>
